X:70
T:Dowd's #9
R:reel
Z:Transcribed by Dave Marshall
M:C|
K:D
|: D~F3 GFEF|DEFA dABA|F2AF GFGB| AGFD A,B,CE|
D~F3 GFEF|DEFA dABA|F2AF GFGB | AGFD EFD2 :|
|: fd~d2 g2ag|fddf ecA2|fd~d2 gfec|dcde fd~d2|
fgaf gfeg|fedf ecAF|GABG FAdB|1 AGFD EFD2 :|2 AGFD A,B,CE||
